static/images/homeWhyDo2.svg

<svg height="118" viewBox="0 0 118 118" width="118" xmlns="http://www.w3.org/2000/svg" xmlns:xlink="http://www.w3.org/1999/xlink"><defs><rect id="a" height="86" rx="43" width="86"/><filter id="b" height="160.5%" width="160.5%" x="-30.2%" y="-25.6%"><feOffset dx="0" dy="4" in="SourceAlpha" result="shadowOffsetOuter1"/><feGaussianBlur in="shadowOffsetOuter1" result="shadowBlurOuter1" stdDeviation="8"/><feColorMatrix in="shadowBlurOuter1" type="matrix" values="0 0 0 0 0.254901961   0 0 0 0 0.458823529   0 0 0 0 0.647058824  0 0 0 0.24 0"/></filter><linearGradient id="c" x1="0%" x2="149.460671%" y1="0%" y2="71.875%"><stop offset="0" stop-color="#00eaf8"/><stop offset="1" stop-color="#6d42ef"/></linearGradient></defs><g fill="none" transform="translate(16 12)"><use fill="#000" filter="url(#b)" xlink:href="#a"/><use fill="#fff" fill-rule="evenodd" xlink:href="#a"/><path d="m47.4609626 46.0613475c-.0915089-.053488-.1776874-.1198175-.2559763-.1989883l-8.2897329-8.3831238h-.1060288c-.6826033 0-1.2359626.5595934-1.2359626 1.2498867v1.9820535l9.8877006 9.9990939zm0-3.4753418v-5.1067703h-5.0498791zm-1.4011961 14.8914175h1.4011961v-3.2319402l-9.8877006-9.9990939v4.5890503l8.2897329 8.3831238c.0782889.0791708.1438794.1663202.1967716.25886zm-3.4366254 0-5.0498791-5.1067703v.6134275 3.2434561c0 .4382545.0065882.8589485.0036529 1.2498867zm-7.5218042-11.1008668v-7.6474343c0-2.0708801 1.6600779-3.7496602 3.7078877-3.7496602h8.651738v-7.4993204c0-2.0708802 1.6600778-3.7496602 3.7078877-3.7496602h7.4157754c2.0478098 0 3.7078877 1.67878 3.7078877 3.7496602 0 .6902934-.5533593 1.2498867-1.2359626 1.2498867s-1.2359626-.5595933-1.2359626-1.2498867-.5533593-1.2498867-1.2359625-1.2498867h-7.4157754c-.6826033 0-1.2359626.5595933-1.2359626 1.2498867v9.9990939 11.873924 8.1242638h8.651738l.1039813.0044311c.2884346.0246267.5740395-.0729072.7886596-.2693266s.3390037-.4741052.3433216-.7475127v-23.9853265c0-.6902934.5533593-1.2498868 1.2359626-1.2498868s1.2359626.5595934 1.2359626 1.2498868l-.0001471 24.004606c-.0150328.9854373-.4338155 1.9203677-1.1564122 2.5816851-.7083288.6482594-1.6463085.9766025-2.5977969.9112171h-9.8412321-12.3596256c-.0034544 0-.0069054-.0000143-.0103531-.0000429-.0040795.0000286-.0081722.0000429-.0122781.0000429h-12.3369945c-.6826033 0-1.2359626-.5595934-1.2359626-1.2498867v-11.2489807c0-.6902934.5533593-1.2498867 1.2359626-1.2498867h10.1225334c.3480402 0 .6841233.0517712 1.0011297.1481138zm-9.8877005 11.1008668h8.6517379c.6826033 0 1.2359626-.5595933 1.2359626-1.2498867v-6.4869122c0-.5591376-.448221-1.0124082-1.0011297-1.0124082h-8.8865708z" fill="url(#c)"/></g></svg>

<?xml version="1.0" encoding="UTF-8"?>
<svg width="118px" height="118px" viewBox="0 0 118 118" version="1.1" xmlns="http://www.w3.org/2000/svg" xmlns:xlink="http://www.w3.org/1999/xlink">
    <!-- Generator: sketchtool 46.2 (44496) - http://www.bohemiancoding.com/sketch -->
    <title>427F9A35-F457-4D1B-B330-96DAFB1DC629</title>
    <desc>Created with sketchtool.</desc>
    <defs>
        <rect id="path-1" x="0" y="0" width="86" height="86" rx="43"></rect>
        <filter x="-30.2%" y="-25.6%" width="160.5%" height="160.5%" filterUnits="objectBoundingBox" id="filter-2">
            <feOffset dx="0" dy="4" in="SourceAlpha" result="shadowOffsetOuter1"></feOffset>
            <feGaussianBlur stdDeviation="8" in="shadowOffsetOuter1" result="shadowBlurOuter1"></feGaussianBlur>
            <feColorMatrix values="0 0 0 0 0.254901961   0 0 0 0 0.458823529   0 0 0 0 0.647058824  0 0 0 0.24 0" type="matrix" in="shadowBlurOuter1"></feColorMatrix>
        </filter>
        <linearGradient x1="0%" y1="0%" x2="149.460671%" y2="71.875%" id="linearGradient-3">
            <stop stop-color="#00EAF8" offset="0%"></stop>
            <stop stop-color="#6D42EF" offset="100%"></stop>
        </linearGradient>
    </defs>
    <g id="Page-1" stroke="none" stroke-width="1" fill="none" fill-rule="evenodd">
        <g id="Home-Page-10/04/2017-screen-Install-Rakam" transform="translate(-539.000000, -2902.000000)" fill-rule="nonzero">
            <g id="Why" transform="translate(75.000000, 2814.000000)">
                <g id="Group-5" transform="translate(0.000000, 100.000000)">
                    <g id="2" transform="translate(355.000000, 0.000000)">
                        <g id="colored_statistic" transform="translate(125.000000, 0.000000)">
                            <g id="Rectangle-path">
                                <use fill="black" fill-opacity="1" filter="url(#filter-2)" xlink:href="#path-1"></use>
                                <use fill="#FFFFFF" fill-rule="evenodd" xlink:href="#path-1"></use>
                            </g>
                            <path d="M47.4609626,46.0613475 C47.3694537,46.0078595 47.2832752,45.94153 47.2049863,45.8623592 L38.9152534,37.4792354 L38.8092246,37.4792354 C38.1266213,37.4792354 37.573262,38.0388288 37.573262,38.7291221 L37.573262,40.7111756 L47.4609626,50.7102695 L47.4609626,46.0613475 Z M47.4609626,42.5860057 L47.4609626,37.4792354 L42.4110835,37.4792354 L47.4609626,42.5860057 Z M46.0597665,57.4774232 L47.4609626,57.4774232 L47.4609626,54.245483 L37.573262,44.2463891 L37.573262,48.8354394 L45.8629949,57.2185632 C45.9412838,57.297734 46.0068743,57.3848834 46.0597665,57.4774232 Z M42.6231411,57.4774232 L37.573262,52.3706529 L37.573262,52.9840804 L37.573262,56.2275365 C37.573262,56.665791 37.5798502,57.086485 37.5769149,57.4774232 L42.6231411,57.4774232 Z M35.1013369,46.3765564 L35.1013369,38.7291221 C35.1013369,36.658242 36.7614148,34.9794619 38.8092246,34.9794619 L47.4609626,34.9794619 L47.4609626,27.4801415 C47.4609626,25.4092613 49.1210404,23.7304813 51.1688503,23.7304813 L58.5846257,23.7304813 C60.6324355,23.7304813 62.2925134,25.4092613 62.2925134,27.4801415 C62.2925134,28.1704349 61.7391541,28.7300282 61.0565508,28.7300282 C60.3739475,28.7300282 59.8205882,28.1704349 59.8205882,27.4801415 C59.8205882,26.7898481 59.2672289,26.2302548 58.5846257,26.2302548 L51.1688503,26.2302548 C50.486247,26.2302548 49.9328877,26.7898481 49.9328877,27.4801415 L49.9328877,37.4792354 L49.9328877,49.3531594 L49.9328877,57.4774232 L58.5846257,57.4774232 L58.688607,57.4818543 C58.9770416,57.506481 59.2626465,57.4089471 59.4772666,57.2125277 C59.6918867,57.0161083 59.8162703,56.7384225 59.8205882,56.465015 L59.8205882,32.4796885 C59.8205882,31.7893951 60.3739475,31.2298017 61.0565508,31.2298017 C61.7391541,31.2298017 62.2925134,31.7893951 62.2925134,32.4796885 L62.2923663,56.4842945 C62.2773335,57.4697318 61.8585508,58.4046622 61.1359541,59.0659796 C60.4276253,59.714239 59.4896456,60.0425821 58.5381572,59.9771967 L48.6969251,59.9771967 L36.3372995,59.9771967 C36.3338451,59.9771967 36.3303941,59.9771824 36.3269464,59.9771538 C36.3228669,59.9771824 36.3187742,59.9771967 36.3146683,59.9771967 L23.9776738,59.9771967 C23.2950705,59.9771967 22.7417112,59.4176033 22.7417112,58.72731 L22.7417112,47.4783293 C22.7417112,46.7880359 23.2950705,46.2284426 23.9776738,46.2284426 L34.1002072,46.2284426 C34.4482474,46.2284426 34.7843305,46.2802138 35.1013369,46.3765564 Z M25.2136364,57.4774232 L33.8653743,57.4774232 C34.5479776,57.4774232 35.1013369,56.9178299 35.1013369,56.2275365 L35.1013369,49.7406243 C35.1013369,49.1814867 34.6531159,48.7282161 34.1002072,48.7282161 L25.2136364,48.7282161 L25.2136364,57.4774232 Z" id="Combined-Shape" fill="url(#linearGradient-3)"></path>
                        </g>
                    </g>
                </g>
            </g>
        </g>
    </g>
</svg>
